X:29
T:Sad Romance
Q:1/4=100
L:1/8
M:3/4
K:Cmaj
e2e2e2|e2g4|e2g4|e2e2e2|e2g4|e2d2c2B2G2AB|
c3B cd|B2G2EG|A3GF2|E4AB|c3B cd|B2G2EG|A6-|A4AB|

